X: 5
M:4/4
L:1/8
K:D
d3 e defe|d2 B2 B2 d2|ABAG ABde|f2 e2 e2||
fg|a3 b afef|d2 B2 B2 fg|a3 g f2 ed|f2 e2 e2 fg|
a3 b afef|d2 B2 g3 B|A2 AB ABde|f2 e2 e2||

